X: 15187
T: Gillespie's
R: hornpipe
M: 4/4
K: Gmajor
|:dc|BAGB AGFA|Ggfg edBG|FADA (3GAB ce|dcBc A2dc|
BAGB AGFA|Ggfg edBG|FGAB cdef|g2G2G2:|
|:Bc|dgfg dgfg|dgfg edBG|FGAB cBcd|edcB A2Bc|
dgfg dgfg|dgfg edBG|FGAB cdef|g2G2G2:|

